packages/core/src/svgs/grnd.svg

<svg width="24" height="24" viewBox="0 0 24 24" fill="none" xmlns="http://www.w3.org/2000/svg">
<g clip-path="url(#clip0_31_11092)">
<path d="M0 0H24V24H0V0Z" fill="#FE3000"/>
<path d="M5.48995 17.5716C5.0228 17.5716 5.16852 17.1859 5.29709 16.9973H4.71423L5.48995 14.6916L8.00995 13.3459L6.6428 12.1587C6.58834 12.1114 6.54822 12.0498 6.52701 11.9809C6.5058 11.9119 6.50434 11.8384 6.5228 11.7687L7.38852 8.68728C7.41559 8.59408 7.4768 8.5145 7.55995 8.46443L10.8257 6.48443C10.8857 6.45014 10.9542 6.42871 11.0271 6.42871H18.4885C18.5515 6.42852 18.6135 6.44375 18.6693 6.47307C18.725 6.50239 18.7727 6.5449 18.8082 6.5969C18.8437 6.64889 18.8659 6.70879 18.873 6.77136C18.88 6.83394 18.8716 6.89728 18.8485 6.95586L18.6771 7.38871H18.8957C18.9574 7.38861 19.0183 7.40334 19.0732 7.43167C19.1281 7.45999 19.1753 7.50108 19.211 7.55148C19.2467 7.60187 19.2698 7.66011 19.2783 7.72128C19.2868 7.78245 19.2805 7.84477 19.2599 7.903L18.6771 9.50157L16.1528 10.8473L16.9285 11.4259C16.9285 11.4259 17.5114 11.8116 17.3142 12.0001C17.7857 12.1544 17.7728 12.4501 17.7042 12.5744L16.5899 15.703C16.558 15.7928 16.4938 15.8677 16.4099 15.913L13.3285 17.5287C13.2715 17.5579 13.2082 17.5726 13.1442 17.5716H5.48995Z" fill="black"/>
<path d="M18 7.28564H10.9286L8.05713 8.97422L7.29427 11.5971L8.81998 12.8571H12.0728L11.88 13.7142H8.81998L5.95284 15.1628L5.57141 16.2856H12.6428L15.5143 14.7856L16.47 11.9742L14.7514 10.7142H11.4986L11.8843 9.85707H14.94L17.6186 8.4085L18 7.28564Z" fill="white"/>
</g>
<defs>
<clipPath id="clip0_31_11092">
<rect width="24" height="24" fill="white"/>
</clipPath>
</defs>
</svg>

<svg xmlns="http://www.w3.org/2000/svg" width="24" height="24" fill="none" viewBox="0 0 24 24"><g clip-path="url(#a)"><path fill="#FE3000" d="M0 0h24v24H0z"/><path fill="#000" d="M5.49 17.572c-.467 0-.321-.386-.193-.575h-.583l.776-2.305 2.52-1.346-1.367-1.187a.39.39 0 0 1-.12-.39l.866-3.082a.4.4 0 0 1 .17-.223l3.267-1.98a.4.4 0 0 1 .201-.055h7.461a.386.386 0 0 1 .36.527l-.17.433h.218a.386.386 0 0 1 .364.514l-.583 1.599-2.524 1.345.776.579s.582.386.385.574c.472.154.459.45.39.574l-1.114 3.129a.39.39 0 0 1-.18.21l-3.081 1.616a.4.4 0 0 1-.185.043z"/><path fill="#fff" d="M18 7.286h-7.071L8.057 8.974l-.763 2.623 1.526 1.26h3.253l-.193.857H8.82l-2.867 1.449-.382 1.123h7.072l2.871-1.5.956-2.812-1.719-1.26H11.5l.385-.857h3.056l2.679-1.448z"/></g><defs><clipPath id="a"><path fill="#fff" d="M0 0h24v24H0z"/></clipPath></defs></svg>
